X: 38491
T: Steampacket, The
R: reel
M: 4/4
K: Gmixolydian
AG-~G2 AGFG|AG-~G2 Acdc|AcGc AFDE|FEFG Acdc|
G2-~G2 AGFG|AG-~G2 Acdc|AcGc AFDE|{G}FEFG ABcA||
dg-~g2 ag-~g2|ag{a}ge fdcA|dg-~g2 ag{a}gf|dc (3dde fdcA|
dg-~g2 ag-~g2|a_bag f3g|{a}gf{a}ge fdcA|d3e fdcA||

